icons/evolvere-blue-folders-flat-vivid-dark-fallback/mimetypes/64/video.svg

<svg xmlns="http://www.w3.org/2000/svg" viewBox="0 0 64 64"><path d="m3 0c-2 0-3 1-3 2v58h64v-3h-3v-7h3v-40h-3v-7h3v-3h-59-1-1m3 3h8v7h-8v-7zm11 0h8v7h-8v-7m11 0h8v7h-8v-7m11 0h8v7h-8v-7m11 0h8v7h-8v-7m-44 47h8v7h-8v-7m11 0h8v7h-8v-7m11 0h8v7h-8v-7m11 0h8v7h-8v-7m11 0h8v7h-8v-7" fill="#1b5bb4"/><path d="m0 2v60c0 1 1 2 3 2h31l2.531-3h-.531v-7h6.375l17.625-21v-19h-2v-7h2v-3h-57c-2 0-3-1-3-2m3 5h8v7h-8v-7zm11 0h8v7h-8v-7m11 0h8v7h-8v-7m11 0h8v7h-8v-7m11 0h8v7h-8v-7m-44 47h8v7h-8v-7m11 0h8v7h-8v-7m11 0h8v7h-8v-7" fill="#244ebb" color="#000"/><path d="m0 62c0 1 2 1 3 1h32l-1 1h-31c-2 0-3-1-3-2" fill-opacity=".103"/><g color="#000"><path d="m0 3v7.6l3 1.801v-5.4h8v7h-5.334l33.33 20 21-12.6v-7.4h-2v-7h2v-3h-57c-1.304 0-2.175-.427-2.629-1h-.371m14 4h8v7h-8v-7m11 0h8v7h-8v-7m11 0h8v7h-8v-7m11 0h8v7h-8v-7" fill="#30a1dd"/><path d="m0 10.6v46.801l3-1.801v-1.6h2.666l33.33-20-33.33-20h-2.666v-1.6l-3-1.801" fill="#3791dd"/><path transform="matrix(.33333 0 0 .3 9 16.6)" fill="#ddf3ff" d="m90 58l-48 32v-64z"/><path d="m39 34l-33.33 20h5.334v7h-8v-5.4l-3 1.801v4.6c0 1 1 2 3 2h31l2.531-3h-.531v-7h6.375l10.03-11.955-13.408-8.04m-25 20h8v7h-8v-7m11 0h8v7h-8v-7" fill="#30a1dd"/><path d="m60 21.4l-21 12.6 13.408 8.04 7.592-9.04v-11.6" fill="#3791dd"/></g><path d="m60 33c-2.329 2.776-4.361 3-11 3h-2v2h-7v-2h-3v15c0 6.644.044 9.37-3 13l6-7.156v-4.844h4.063l2.531-3h-6.594v-8h7v7.5l13-15.5" fill="#1776c6"/></svg>

<?xml version="1.0" encoding="UTF-8" standalone="no"?>
<!-- Created with Inkscape (http://www.inkscape.org/) -->

<svg
   xmlns:dc="http://purl.org/dc/elements/1.1/"
   xmlns:cc="http://creativecommons.org/ns#"
   xmlns:rdf="http://www.w3.org/1999/02/22-rdf-syntax-ns#"
   xmlns:svg="http://www.w3.org/2000/svg"
   xmlns="http://www.w3.org/2000/svg"
   xmlns:sodipodi="http://sodipodi.sourceforge.net/DTD/sodipodi-0.dtd"
   xmlns:inkscape="http://www.inkscape.org/namespaces/inkscape"
   version="1.1"
   width="64"
   height="64"
   id="svg13094"
   inkscape:version="0.91+devel r"
   sodipodi:docname="video.svg">
  <sodipodi:namedview
     pagecolor="#ffffff"
     bordercolor="#666666"
     borderopacity="1"
     objecttolerance="10"
     gridtolerance="10"
     guidetolerance="10"
     inkscape:pageopacity="0"
     inkscape:pageshadow="2"
     inkscape:window-width="1920"
     inkscape:window-height="1023"
     id="namedview70"
     showgrid="true"
     inkscape:zoom="10.429825"
     inkscape:cx="39.464881"
     inkscape:cy="31.514072"
     inkscape:window-x="-10"
     inkscape:window-y="35"
     inkscape:window-maximized="1"
     inkscape:current-layer="svg13094"
     fit-margin-top="0"
     fit-margin-left="0"
     fit-margin-right="0"
     fit-margin-bottom="0"
     inkscape:snap-bbox="true"
     inkscape:bbox-paths="true"
     inkscape:bbox-nodes="true"
     inkscape:snap-bbox-edge-midpoints="true"
     inkscape:snap-bbox-midpoints="true"
     inkscape:object-paths="true"
     inkscape:object-nodes="true"
     inkscape:snap-intersection-paths="true"
     inkscape:snap-smooth-nodes="true"
     inkscape:snap-midpoints="true"
     inkscape:snap-others="true"
     inkscape:snap-object-midpoints="true"
     inkscape:snap-center="true"
     inkscape:snap-text-baseline="true">
    <inkscape:grid
       type="xygrid"
       id="grid3062"
       empspacing="5"
       visible="true"
       enabled="true"
       snapvisiblegridlinesonly="true"
       originx="0px"
       originy="0px" />
  </sodipodi:namedview>
  <defs
     id="defs11" />
  <metadata
     id="metadata13099">
    <rdf:RDF>
      <cc:Work
         rdf:about="">
        <dc:format>image/svg+xml</dc:format>
        <dc:type
           rdf:resource="http://purl.org/dc/dcmitype/StillImage" />
        <dc:title></dc:title>
      </cc:Work>
    </rdf:RDF>
  </metadata>
  <path
     inkscape:connector-curvature="0"
     style="fill:#1b5bb4;fill-opacity:1;fill-rule:nonzero"
     id="path4267"
     d="M 3,0 C 1,0 0,1 0,2 l 0,58 64,0 0,-3 -3,0 0,-7 3,0 0,-40 -3,0 0,-7 3,0 L 64,0 5,0 4,0 3,0 Z m 3,3 8,0 0,7 -8,0 0,-7 z m 11,0 8,0 0,7 -8,0 0,-7 z m 11,0 8,0 0,7 -8,0 0,-7 z m 11,0 8,0 0,7 -8,0 0,-7 z m 11,0 8,0 0,7 -8,0 0,-7 z m -44,47 8,0 0,7 -8,0 0,-7 z m 11,0 8,0 0,7 -8,0 0,-7 z m 11,0 8,0 0,7 -8,0 0,-7 z m 11,0 8,0 0,7 -8,0 0,-7 z m 11,0 8,0 0,7 -8,0 0,-7 z" />
  <path
     style="color:#000000;display:inline;overflow:visible;visibility:visible;fill:#244ebb;fill-opacity:1;fill-rule:nonzero;stroke:none;stroke-width:1;marker:none;enable-background:accumulate"
     d="m 0,2 0,60 c 0,1 1,2 3,2 L 34,64 36.53125,61 36,61 36,54 42.375,54 60,33 60,14 58,14 58,7 60,7 60,4 3,4 C 1,4 0,3 0,2 Z m 3,5 8,0 0,7 -8,0 0,-7 z m 11,0 8,0 0,7 -8,0 0,-7 z m 11,0 8,0 0,7 -8,0 0,-7 z m 11,0 8,0 0,7 -8,0 0,-7 z m 11,0 8,0 0,7 -8,0 0,-7 z m -44,47 8,0 0,7 -8,0 0,-7 z m 11,0 8,0 0,7 -8,0 0,-7 z m 11,0 8,0 0,7 -8,0 0,-7 z"
     id="path4289"
     inkscape:connector-curvature="0" />
  <path
     inkscape:connector-curvature="0"
     style="fill:#000000;fill-opacity:0.10341803;fill-rule:nonzero"
     id="path4317"
     d="m 0,62 c 0,1 2,1 3,1 l 32,0 -1,1 -31,0 C 1,64 0,63 0,62 Z" />
  <path
     style="color:#000000;display:inline;overflow:visible;visibility:visible;opacity:1;fill:#30a1dd;fill-opacity:1;fill-rule:nonzero;stroke:none;stroke-width:1;stroke-linecap:butt;stroke-linejoin:miter;stroke-miterlimit:4;stroke-dasharray:none;stroke-dashoffset:0;stroke-opacity:1;marker:none;enable-background:accumulate"
     d="M 0 3 L 0 10.599609 L 3 12.400391 L 3 7 L 11 7 L 11 14 L 5.6660156 14 L 39 34 L 60 21.400391 L 60 14 L 58 14 L 58 7 L 60 7 L 60 4 L 3 4 C 1.6963049 4 0.82497839 3.572837 0.37109375 3 L 0 3 z M 14 7 L 22 7 L 22 14 L 14 14 L 14 7 z M 25 7 L 33 7 L 33 14 L 25 14 L 25 7 z M 36 7 L 44 7 L 44 14 L 36 14 L 36 7 z M 47 7 L 55 7 L 55 14 L 47 14 L 47 7 z "
     id="rect4386" />
  <path
     style="color:#000000;display:inline;overflow:visible;visibility:visible;opacity:1;fill:#3791dd;fill-opacity:1;fill-rule:nonzero;stroke:none;stroke-width:1;stroke-linecap:butt;stroke-linejoin:miter;stroke-miterlimit:4;stroke-dasharray:none;stroke-dashoffset:0;stroke-opacity:1;marker:none;enable-background:accumulate"
     d="M 0 10.599609 L 0 57.400391 L 3 55.599609 L 3 54 L 5.6660156 54 L 39 34 L 5.6660156 14 L 3 14 L 3 12.400391 L 0 10.599609 z "
     id="rect4265" />
  <polygon
     transform="matrix(0.33333333,0,0,0.30000074,9,16.599957)"
     style="color:#000000;display:inline;overflow:visible;visibility:visible;fill:#ddf3ff;fill-opacity:1;fill-rule:nonzero;stroke:none;stroke-width:3.16227388;marker:none;enable-background:accumulate"
     id="polygon4325"
     points="90,58 42,90 42,26 42,26 " />
  <path
     style="color:#000000;display:inline;overflow:visible;visibility:visible;opacity:1;fill:#30a1dd;fill-opacity:1;fill-rule:nonzero;stroke:none;stroke-width:1;stroke-linecap:butt;stroke-linejoin:miter;stroke-miterlimit:4;stroke-dasharray:none;stroke-dashoffset:0;stroke-opacity:1;marker:none;enable-background:accumulate"
     d="M 39 34 L 5.6660156 54 L 11 54 L 11 61 L 3 61 L 3 55.599609 L 0 57.400391 L 0 62 C 0 63 1 64 3 64 L 34 64 L 36.53125 61 L 36 61 L 36 54 L 42.375 54 L 52.408203 42.044922 L 39 34 z M 14 54 L 22 54 L 22 61 L 14 61 L 14 54 z M 25 54 L 33 54 L 33 61 L 25 61 L 25 54 z "
     id="path4416" />
  <path
     style="color:#000000;display:inline;overflow:visible;visibility:visible;opacity:1;fill:#3791dd;fill-opacity:1;fill-rule:nonzero;stroke:none;stroke-width:1;stroke-linecap:butt;stroke-linejoin:miter;stroke-miterlimit:4;stroke-dasharray:none;stroke-dashoffset:0;stroke-opacity:1;marker:none;enable-background:accumulate"
     d="M 60 21.400391 L 39 34 L 52.408203 42.044922 L 60 33 L 60 21.400391 z "
     id="rect4408" />
  <path
     d="m 60,33 c -2.328567,2.776369 -4.36141,3 -11,3 l -2,0 0,2 -7,0 0,-2 -3,0 0,15 c 0,6.64407 0.04437,9.37018 -3,13 L 40,56.84375 40,52 44.0625,52 46.59375,49 40,49 l 0,-8 7,0 0,7.5 L 60,33 Z"
     id="path4331"
     style="fill:#1776c6;fill-rule:nonzero;fill-opacity:1"
     inkscape:connector-curvature="0" />
</svg>
